image/icon/Winterhold_red.svg

<!--version="1.0" encoding="utf-8"--><svg version="1.1" id="Layer_1" xmlns="http://www.w3.org/2000/svg" width="33" height="42" xml:space="preserve"><g id="PathID_2" transform="matrix(1, 0, 0, 1, 16.25, 21)"><path style="fill: rgb(59, 129, 247); fill-opacity: 1;" d="m.1-17.65-.3.1-.65 1.25-.6 1.85-.7 3q-.9.75-.9 1.95l.45 1.75q-.75 1.15-.15 2.7L-4-2.95l-1 1.9-.25.2-.05.05-.5.1q-.3 0-.5-.25l-.2-.25-.35-.7q.5-.9.5-1.75 0-1.2-.9-1.95l-.7-3-.6-1.85q-.35-1.05-.65-1.25l-.15-.1h-.15l-.35.1-.65 1.25-1.1 3.8-.2 1.1-.5.65q-.8 1.45-.1 2.9-.45.85-.4 1.7v.05l.05.15.05.05 2.65 4.65.15.2.3.2.05-.05 4.75-1h.05l.35-.05 4.5-.4q3.8 0 9.25 1.4l.25.05.05.05.3-.2.15-.2 2.65-4.65.05-.05.05-.15V-.3q.1-.85-.4-1.7.7-1.45-.1-2.9l-.5-.65-.25-1.1-1.05-3.8-.65-1.25-.35-.1H9.4l-.15.1q-.3.2-.65 1.25L8-8.6l-.7 3q-.9.75-.9 1.95 0 .75.45 1.75l-.3.7-.2.25q-.2.25-.5.25-.55 0-2.35-3.6L3-5.1q.8-1.2.05-2.65L3-7.85q.7-1.45-.1-2.9l-.5-.65-1.3-4.9-.65-1.25-.35-.1M2.4-1 0 2.8-2.35-1 0-4.8 2.4-1m11.95-1.35q0 4.1-2.85 9.6Q7.55 14.85.05 19.1H0q-7.5-4.25-11.45-11.85-2.85-5.5-2.85-9.6V-19.1h28.65v16.75M0 6.5l-2.35 3.75L0 14.05l2.4-3.8L0 6.5"/><path style="fill: rgb(0, 0, 0); fill-opacity: 1;" d="m.45-17.55.65 1.25 1.3 4.9.5.65q.8 1.45.1 2.9l.05.1Q3.8-6.3 3-5.1l.5.8Q5.3-.7 5.85-.7q.3 0 .5-.25l.2-.25.3-.7q-.45-1-.45-1.75 0-1.2.9-1.95l.7-3 .6-1.85q.35-1.05.65-1.25l.15-.1h.15l.35.1.65 1.25 1.05 3.8.25 1.1.5.65q.8 1.45.1 2.9.5.85.4 1.7v.05l-.05.15-.05.05L10.1 4.6l-.15.2-.3.2-.05-.05-.25-.05Q3.9 3.5.1 3.5l-4.5.4-.35.05h-.05l-4.75 1-.05.05-.3-.2-.15-.2-2.65-4.65-.05-.05-.05-.15V-.3q-.05-.85.4-1.7-.7-1.45.1-2.9l.5-.65.2-1.1 1.1-3.8.65-1.25.35-.1h.15l.15.1q.3.2.65 1.25l.6 1.85.7 3q.9.75.9 1.95 0 .85-.5 1.75l.35.7.2.25q.2.25.5.25l.5-.1.05-.05.25-.2 1-1.9 1.25-2.1q-.6-1.55.15-2.7l-.45-1.75q0-1.2.9-1.95l.7-3 .6-1.85.65-1.25.3-.1.35.1M0-4.8-2.35-1 0 2.8 2.4-1 0-4.8m14.35-14.3H-14.3v16.75q0 4.1 2.85 9.6Q-7.5 14.85 0 19.1h.05q7.5-4.25 11.45-11.85 2.85-5.5 2.85-9.6V-19.1M16.3-2.35q0 4.5-2.95 10.25Q9.25 16 1.2 20.6l-.4.4H-.8l-.35-.4q-8-4.6-12.15-12.7-2.95-5.75-2.95-10.25V-21H16.3v18.65M2.4 10.25l-2.4 3.8-2.35-3.8L0 6.5l2.4 3.75"/></g></svg>

<?xml version="1.0" encoding="utf-8"?>
<svg version="1.1" id="Layer_1"
xmlns="http://www.w3.org/2000/svg"
xmlns:xlink="http://www.w3.org/1999/xlink"
width="33px" height="42px"
xml:space="preserve">
<g id="PathID_2" transform="matrix(1, 0, 0, 1, 16.25, 21)">
<path style="fill:#3b81f7;fill-opacity:1" d="M0.1 -17.65L-0.2 -17.55L-0.85 -16.3L-1.45 -14.45L-2.15 -11.45Q-3.05 -10.7 -3.05 -9.5L-2.6 -7.75Q-3.35 -6.6 -2.75 -5.05L-4 -2.95L-5 -1.05L-5.25 -0.85L-5.3 -0.8L-5.8 -0.7Q-6.1 -0.7 -6.3 -0.95L-6.5 -1.2L-6.85 -1.9Q-6.35 -2.8 -6.35 -3.65Q-6.35 -4.85 -7.25 -5.6L-7.95 -8.6L-8.55 -10.45Q-8.9 -11.5 -9.2 -11.7L-9.35 -11.8L-9.5 -11.8L-9.85 -11.7L-10.5 -10.45L-11.6 -6.65L-11.8 -5.55L-12.3 -4.9Q-13.1 -3.45 -12.4 -2Q-12.85 -1.15 -12.8 -0.3L-12.8 -0.25L-12.75 -0.1L-12.7 -0.05L-10.05 4.6L-9.9 4.8L-9.6 5L-9.55 4.95L-4.8 3.95L-4.75 3.95L-4.4 3.9L0.1 3.5Q3.9 3.5 9.35 4.9L9.6 4.95L9.65 5L9.95 4.8L10.1 4.6L12.75 -0.05L12.8 -0.1L12.85 -0.25L12.85 -0.3Q12.95 -1.15 12.45 -2Q13.15 -3.45 12.35 -4.9L11.85 -5.55L11.6 -6.65L10.55 -10.45L9.9 -11.7L9.55 -11.8L9.4 -11.8L9.25 -11.7Q8.95 -11.5 8.6 -10.45L8 -8.6L7.3 -5.6Q6.4 -4.85 6.4 -3.65Q6.4 -2.9 6.85 -1.9L6.55 -1.2L6.35 -0.95Q6.15 -0.7 5.85 -0.7Q5.3 -0.7 3.5 -4.3L3 -5.1Q3.8 -6.3 3.05 -7.75L3 -7.85Q3.7 -9.3 2.9 -10.75L2.4 -11.4L1.1 -16.3L0.45 -17.55L0.1 -17.65M2.4 -1L0 2.8L-2.35 -1L0 -4.8L2.4 -1M14.35 -2.35Q14.35 1.75 11.5 7.25Q7.55 14.85 0.05 19.1L0 19.1Q-7.5 14.85 -11.45 7.25Q-14.3 1.75 -14.3 -2.35L-14.3 -19.1L14.35 -19.1L14.35 -2.35M0 6.5L-2.35 10.25L0 14.05L2.4 10.25L0 6.5" />
<path style="fill:#000000;fill-opacity:1" d="M0.45 -17.55L1.1 -16.3L2.4 -11.4L2.9 -10.75Q3.7 -9.3 3 -7.85L3.05 -7.75Q3.8 -6.3 3 -5.1L3.5 -4.3Q5.3 -0.7 5.85 -0.7Q6.15 -0.7 6.35 -0.95L6.55 -1.2L6.85 -1.9Q6.4 -2.9 6.4 -3.65Q6.4 -4.85 7.3 -5.6L8 -8.6L8.6 -10.45Q8.95 -11.5 9.25 -11.7L9.4 -11.8L9.55 -11.8L9.9 -11.7L10.55 -10.45L11.6 -6.65L11.85 -5.55L12.35 -4.9Q13.15 -3.45 12.45 -2Q12.95 -1.15 12.85 -0.3L12.85 -0.25L12.8 -0.1L12.75 -0.05L10.1 4.6L9.95 4.8L9.65 5L9.6 4.95L9.35 4.9Q3.9 3.5 0.1 3.5L-4.4 3.9L-4.75 3.95L-4.8 3.95L-9.55 4.95L-9.6 5L-9.9 4.8L-10.05 4.6L-12.7 -0.05L-12.75 -0.1L-12.8 -0.25L-12.8 -0.3Q-12.85 -1.15 -12.4 -2Q-13.1 -3.45 -12.3 -4.9L-11.8 -5.55L-11.6 -6.65L-10.5 -10.45L-9.85 -11.7L-9.5 -11.8L-9.35 -11.8L-9.2 -11.7Q-8.9 -11.5 -8.55 -10.45L-7.95 -8.6L-7.25 -5.6Q-6.35 -4.85 -6.35 -3.65Q-6.35 -2.8 -6.85 -1.9L-6.5 -1.2L-6.3 -0.95Q-6.1 -0.7 -5.8 -0.7L-5.3 -0.8L-5.25 -0.85L-5 -1.05L-4 -2.95L-2.75 -5.05Q-3.35 -6.6 -2.6 -7.75L-3.05 -9.5Q-3.05 -10.7 -2.15 -11.45L-1.45 -14.45L-0.85 -16.3L-0.2 -17.55L0.1 -17.65L0.45 -17.55M0 -4.8L-2.35 -1L0 2.8L2.4 -1L0 -4.8M14.35 -19.1L-14.3 -19.1L-14.3 -2.35Q-14.3 1.75 -11.45 7.25Q-7.5 14.85 0 19.1L0.05 19.1Q7.55 14.85 11.5 7.25Q14.35 1.75 14.35 -2.35L14.35 -19.1M16.3 -2.35Q16.3 2.15 13.35 7.9Q9.25 16 1.2 20.6L0.8 21L-0.8 21L-1.15 20.6Q-9.15 16 -13.3 7.9Q-16.25 2.15 -16.25 -2.35L-16.25 -21L16.3 -21L16.3 -2.35M2.4 10.25L0 14.05L-2.35 10.25L0 6.5L2.4 10.25" />
</g>
</svg>
